wp-content/themes/cvidasegura/library/icons/facebook-consultoria-vida-segura-white.svg

<svg width="48" height="48" viewBox="0 0 48 48" fill="none" xmlns="http://www.w3.org/2000/svg">
<g clip-path="url(#clip0_54_86)">
<path d="M24 0C10.7438 0 0 10.7438 0 24C0 37.2562 10.7438 48 24 48C37.2562 48 48 37.2562 48 24C48 10.7438 37.2562 0 24 0ZM38.9812 38.9719C37.0312 40.9219 34.7719 42.45 32.25 43.5094C29.6438 44.6156 26.8688 45.1687 24 45.1687C21.1406 45.1687 18.3656 44.6062 15.75 43.5094C13.2281 42.4406 10.9594 40.9125 9.01875 38.9719C7.06875 37.0219 5.54063 34.7625 4.48125 32.2406C3.375 29.6344 2.8125 26.8594 2.8125 24C2.8125 21.1406 3.375 18.3656 4.47187 15.75C5.54062 13.2281 7.06875 10.9594 9.00937 9.01875C10.9687 7.06875 13.2281 5.54062 15.75 4.47187C18.3656 3.375 21.1406 2.8125 24 2.8125C26.8594 2.8125 29.6344 3.375 32.25 4.47187C34.7719 5.54062 37.0406 7.06875 38.9812 9.00938C40.9312 10.9594 42.4594 13.2187 43.5188 15.7406C44.625 18.3469 45.1781 21.1219 45.1781 23.9906C45.1781 26.85 44.6156 29.625 43.5188 32.2406C42.45 34.7625 40.9219 37.0313 38.9812 38.9719Z" fill="white"/>
</g>
<path fill-rule="evenodd" clip-rule="evenodd" d="M30.4511 21.9612L29.9798 25.369H24.3195V37.2961H20.8797V25.369H15.7199V21.9612H20.8797V18.838C20.8797 14.5051 23.5662 11.7039 27.7267 11.7039C29.5086 11.7039 30.6196 11.7976 31.2612 11.8828L31.2113 15.1099L28.566 15.115C28.4938 15.1082 26.7704 14.9753 25.5269 16.1067C24.7255 16.8343 24.3195 17.8804 24.3195 19.2129V21.9612L30.4511 21.9612ZM26.681 17.3693C27.3586 16.744 28.4147 16.8121 28.4921 16.8155L32.9054 16.8138L33 10.5078L32.3361 10.3459C31.9096 10.242 30.6041 10 27.7267 10C22.6031 10 19.1598 13.5526 19.1598 18.838V20.2573H14V27.0729H19.1598V39H26.0395V27.0728H31.4779L32.4221 20.2573H26.0395V19.2129C26.0395 18.3831 26.2562 17.7629 26.681 17.3693Z" fill="white"/>
<defs>
<clipPath id="clip0_54_86">
<rect width="48" height="48" fill="white"/>
</clipPath>
</defs>
</svg>

<svg xmlns="http://www.w3.org/2000/svg" width="48" height="48" fill="none"><g clip-path="url(#a)"><path fill="#fff" d="M24 0C10.744 0 0 10.744 0 24s10.744 24 24 24 24-10.744 24-24S37.256 0 24 0Zm14.981 38.972a20.957 20.957 0 0 1-6.731 4.537A20.987 20.987 0 0 1 24 45.17c-2.86 0-5.634-.563-8.25-1.66a21.16 21.16 0 0 1-6.731-4.537A20.957 20.957 0 0 1 4.48 32.24 20.983 20.983 0 0 1 2.813 24c0-2.86.562-5.634 1.659-8.25A21.28 21.28 0 0 1 15.75 4.472 21.223 21.223 0 0 1 24 2.812c2.86 0 5.634.563 8.25 1.66a21.159 21.159 0 0 1 6.731 4.537 20.958 20.958 0 0 1 4.538 6.732 20.988 20.988 0 0 1 1.66 8.25c0 2.859-.563 5.634-1.66 8.25a21.16 21.16 0 0 1-4.538 6.73Z"/></g><path fill="#fff" fill-rule="evenodd" d="m30.451 21.961-.471 3.408h-5.66v11.927h-3.44V25.37h-5.16v-3.408h5.16v-3.123c0-4.333 2.686-7.134 6.847-7.134 1.782 0 2.893.094 3.534.179l-.05 3.227-2.645.005c-.072-.007-1.796-.14-3.04.992-.8.727-1.206 1.773-1.206 3.106v2.748h6.131Zm-3.77-4.592c.678-.625 1.734-.557 1.811-.553l4.413-.002.095-6.306-.664-.162c-.426-.104-1.732-.346-4.61-.346-5.123 0-8.566 3.553-8.566 8.838v1.42H14v6.815h5.16V39h6.88V27.073h5.438l.944-6.816H26.04v-1.044c0-.83.216-1.45.641-1.844Z" clip-rule="evenodd"/><defs><clipPath id="a"><path fill="#fff" d="M0 0h48v48H0z"/></clipPath></defs></svg>
